svgs/solid/input-text.svg

<svg xmlns="http://www.w3.org/2000/svg" viewBox="0 0 640 512"><!--! Font Awesome Pro 6.2.0 by @fontawesome - https://fontawesome.com License - https://fontawesome.com/license (Commercial License) Copyright 2022 Fonticons, Inc. --><path d="M64 128V384H576V128H64zM0 128C0 92.7 28.7 64 64 64H576c35.3 0 64 28.7 64 64V384c0 35.3-28.7 64-64 64H64c-35.3 0-64-28.7-64-64V128zm184 32c9.5 0 18.1 5.6 21.9 14.3l64 144c5.4 12.1-.1 26.3-12.2 31.7s-26.3-.1-31.7-12.2l-4.3-9.7H146.3l-4.3 9.7c-5.4 12.1-19.6 17.6-31.7 12.2s-17.6-19.6-12.2-31.7l64-144c3.9-8.7 12.4-14.3 21.9-14.3zm0 83.1L167.6 280h32.8L184 243.1zM304 184c0-13.3 10.7-24 24-24h52c33.1 0 60 26.9 60 60c0 9.2-2.1 17.9-5.8 25.7c13.3 11 21.8 27.6 21.8 46.3c0 33.1-26.9 60-60 60H328c-13.3 0-24-10.7-24-24v-8V256 192v-8zm48 24v24h28c6.6 0 12-5.4 12-12s-5.4-12-12-12H352zm0 96h44c6.6 0 12-5.4 12-12s-5.4-12-12-12H380 352v24z"/></svg>

<svg xmlns="http://www.w3.org/2000/svg" viewBox="0 0 640 512"><!--! Font Awesome Pro 6.1.2 by @fontawesome - https://fontawesome.com License - https://fontawesome.com/license (Commercial License) Copyright 2022 Fonticons, Inc. --><path d="M184 160C193.5 160 202.1 165.6 205.9 174.3L269.9 318.3C275.3 330.4 269.9 344.5 257.7 349.9C245.6 355.3 231.5 349.9 226.1 337.7L221.7 328H146.3L141.9 337.7C136.5 349.9 122.4 355.3 110.3 349.9C98.14 344.5 92.69 330.4 98.07 318.3L162.1 174.3C165.9 165.6 174.5 160 184 160H184zM167.6 280H200.4L184 243.1L167.6 280zM304 184C304 170.7 314.7 160 328 160H380C413.1 160 440 186.9 440 220C440 229.2 437.9 237.9 434.2 245.7C447.5 256.7 456 273.4 456 292C456 325.1 429.1 352 396 352H328C314.7 352 304 341.3 304 328V184zM352 208V232H380C386.6 232 392 226.6 392 220C392 213.4 386.6 208 380 208H352zM352 304H396C402.6 304 408 298.6 408 292C408 285.4 402.6 280 396 280H352V304zM0 128C0 92.65 28.65 64 64 64H576C611.3 64 640 92.65 640 128V384C640 419.3 611.3 448 576 448H64C28.65 448 0 419.3 0 384V128zM64 384H576V128H64V384z"/></svg>
